!!!COM: Fonghetti, Paolo
!!!CDT:
!!!PTL: Capricii et madrigali. A due voci
!!!PPP: Verona
!!!PPR: Dalle Donne
!!!PDT: 1598
!!!PUB-format:
!!!RISM: F 1471
!!!rime: 335
!!!OTL: Voi bramate, ben mio
!!!AGN: Madrigal
!!!SCT: Trm0335f
!!!SCA: Trm0335f
!!!original-voices: 2
!!!extant-voices: 2
!!!complete: Y
!!!final: A
**kern	**text	**kern	**text
*part2	*part2	*part1	*part1
*staff2	*staff2	*staff1	*staff1
*I"Tenore	*	*I"Canto	*
*I'T	*	*I'C	*
*oclefC2	*	*oclefG2	*
*clefG2	*	*clefG2	*
*k[]	*	*k[]	*
*C:	*	*C:	*
*omet(C)	*	*omet(C)	*
*M4/2	*	*M4/2	*
=1	=1	=1	=1
4a	Voi	2r	.
4a	bra-	.	.
2a	-ma-	4ee	Voi
.	.	4ee	bra-
4g	-te,	2ee	-ma-
4g	ben	.	.
2f	mi-	4dd	-te,
.	.	4dd	ben
=2	=2	=2	=2
4e	-o,	2cc	mi-
2a	Che	.	.
.	.	4b	-o,
4g	m'uc-	2ee	Che
2f	-ci	.	.
.	.	4dd	m'uc-
4e	da	[2cc	-ci-
4e	di	.	.
=3	=3	=3	=3
4f#X	do-	2cc]	.
2a	-lo-	.	.
.	.	2b	-da
4g#X	.	.	.
2a	-re,	2.cc	di
4r	.	.	.
4a	Che	4cc	do-
=4	=4	=4	=4
2f#X	m'uc-	2a	-lo-
2g#X	-ci-	4b	-re,
.	.	4ee	di
4a	-da	2cc#X	do-
4e	di	.	.
2f#X	do-	2dd	-lo-
=5	=5	=5	=5
4g#X	-lo-	2ee	-re,
2a	.	.	.
.	.	4r	.
4g#X	.	4b	Pe-
2a	-re,	4.cc	-rò
.	.	8cc	tro-
4r	.	4cc	-va-
4e	Pe-	4b	-te
=6	=6	=6	=6
4.f	-rò	4.a	pe-
8f	tro-	8a	-na_in
4f	-va-	4a	que-
4e	-te	4g#X	-sto
4d	pe-	4a	co-
4e	-na_in	2g	.
4c	que-	.	.
4d	-sto	4f	.
=7	=7	=7	=7
2e	co-	4g	-re:
.	.	4b	Ma
4A	-re:	2ee	pur,
4A	Ma	.	.
2e	pur,	4r	.
.	.	4.b	men-
4r	.	.	.
.	.	8b	-tre
[4e	men-	4b	mi
=8	=8	=8	=8
8e]	.	2g#X	do-
8e	-tre	.	.
4e	mi	.	.
2c	do-	2a	-glio,
2d	-glio,	4r	.
.	.	2a	Sen-
4r	.	.	.
[4d	Sen-	8g	-to_un
.	.	8f	pia-
=9	=9	=9	=9
4d]	.	4e	-cer
8c	-to	4e	sì
8B	pia-	.	.
4A	-cer	2f	no-
4A	sì	.	.
4.c	no-	4e	-vo,
.	.	8ee	Del
16BL	.	8ee	pia-
16AJ	.	.	.
2B	.	4dd	-cer
.	.	8dd	che
.	.	8b	vi
=10	=10	=10	=10
4A	-vo,	4.cc	por-
8a	Del	.	.
8a	pia-	8cc	-ge_il
4g	-cer	4b	mio
8g	che	4b	cor-
8e	vi	.	.
4.f	por-	2a	-do-
8f	-ge_il	.	.
4e	mio	2g	-glio.
4e	cor-	.	.
=11	=11	=11	=11
2d	-do-	4r	.
.	.	4b	O_a-
4c	-glio.	2.cc	-ma-
4e	O_a-	.	.
2.g	-ma-	.	.
.	.	4b	-ra
.	.	2a	vo-
4f	-ra	.	.
=12	=12	=12	=12
2e	vo-	2g	-glia,
2d	-glia,	4r	.
.	.	4a	e
4r	.	4.b	qua-
4d	e	.	.
.	.	8b	-si_av-
4.e	qua-	4g#X	-vien
.	.	4g#i	d'al-
8e	-si_av-	.	.
=13	=13	=13	=13
4c#X	-vien	2a	-lo-
4c#i	d'al-	.	.
2d	-lo-	4a	-ra
.	.	4ff	Per
4a	-ra	4ee	do-
4cc	Per	4ee	-glia
4b	do-	2dd	no,
4b	-glia	.	.
=14	=14	=14	=14
4a	no,	4r	.
4A	Per	4cc#X	e
2B	do-	4.dd	qua-
.	.	8dd	-si_av-
2c#X	-glia	4ee	-vien
.	.	4ee	d'al-
4d	no,	4ff	-lo-
4a	ma	4ee	-ra
=15	=15	=15	=15
4a	per	4r	.
4g#X	di-	4ee	per
4a	-let-	4ee	do-
4b	-to_io	4dd#X	-glia
2cc	mo-	2ee	no,
4b	-ra,	4r	.
4a	per	4cc	ma
=16	=16	=16	=16
4a	do-	4b	per
4g#X	-glia	4b	di-
4a	no,	2a	-let-
4d	ma	.	.
4d	per	2a	-to,
4c#X	di-	.	.
4d	-let-	4r	.
4f	-to_io	4a	ma
=17	=17	=17	=17
2e	mo-	4a	per
.	.	4g#X	di-
4d	-ra,	4a	-let-
4a	per	4cc	-to_io
4a	do-	2b	mo-
4g#X	-glia	.	.
2a	no,	4a	-ra,
.	.	4a	e
=18	=18	=18	=18
4r	.	4.b	qua-
4d	e	.	.
.	.	8b	-si_av-
4.e	qua-	4g#X	-vien
.	.	4g#i	d'al-
8e	-si_av-	.	.
4c#X	-vien	2a	-lo-
4c#i	d'al-	.	.
2d	-lo-	4a	-ra
.	.	4ff	per
=19	=19	=19	=19
4a	-ra	4ee	do-
4cc	per	4ee	-glia
4b	do-	2dd	no,
4b	-glia	.	.
4a	no,	4r	.
2f	ma	2a	ma
8e	per	8g	per
8d	di-	8f	di-
=20	=20	=20	=20
4c#X	-let-	4e	-let-
4c#i	-to_io	4e	-to_io
4d	mo-	4f	mo-
4A	-ra,	4e	-ra,
4r	.	2r	.
2a	ma	.	.
.	.	4r	.
8g	per	[4ee	ma
8f	di-	.	.
=21	=21	=21	=21
4g	-let-	4ee]	.
4a	-to_io	8dd	per
.	.	8cc	di-
4.g	mo-	8ddL	-let-
.	.	8cc	.
.	.	8b	.
8f	.	8aJ	.
4e	.	4g#X	.
2a	.	4a	-to_io
.	.	2b	mo-
4g#X	.	.	.
=22	=22	=22	=22
0al	-ra.	0al	-ra.
==	==	==	==
*-	*-	*-	*-
!!!system-decoration: [*]
!!!RDF**kern: i = editorial accidental
!!!RDF**kern: l = terminal long
!!!ENC: Emiliano Ricciardi
!!!END: 2019/01/30
!!!EED: Schleuse, Paul
!!!EEV: 2019/01/30
!!!YEC: Copyright 2018 Emiliano Ricciardi, All Rights Reserved
!!!ONB: Translated from MusicXML on 2019/01/30 and edited by Craig Stuart Sapp
!!@@BEGIN:	VERSEDATA
!!@SOLERTI:	335
!!@CATALOGNUM:	Trm0335
!!@LAST_MODIFIED: 2020/07/12
!!@TITLE:		Voi bramate, ben mio
!!@GENRE:		madrigale
!!@MANUSRC:	E<sub>1</sub>, F<sub>2</sub>
!!@PRINTSRC:	28, 48, 54, 93, 141, 166, 169
!!@@BEGIN:	VERSES
!!@ABOUTIT:
!!@ABOUTEN:
!!@EDITOR:	Solerti, Angelo
!!@EDITION_TITLE: Le Rime di Torquato Tasso
!!@EDITION_LOC:	Bologna
!!@EDITION_PUB:	Romagnoli-Dall’Acqua
!!@EDITION_DATE:  1898-1902
!!@EDITION_VOL:	2
!!@EDITION_PAGE:  382
!!@TRANSLATOR:	Maria Pastore Passaro; adapted by Emiliano Ricciardi and Amyrose McCue Gill
!!@VERSE:
!!	Voi bramate, ben mio,
!!	Che m'uccida il dolore,
!!	Però crescete pena in questo core:
!!	Ma pur, mentre mi doglio,
!!	Sento un piacer sì novo
!!	Del piacer che vi porge il mio cordoglio.
!!	Oh maraviglia!, e quasi avvien ch'allora
!!	Per doglia no, ma per diletto io mora.
!!@TVERSE:
!!	You desire, my dear,
!!	That suffering kill me,
!!	Though you grow the pain in this heart
!!	Yet still, while I suffer,
!!	I feel a pleasure so new
!!	From the pleasure that my sorrow gives you.
!!	O wonder! And it almost comes to pass that then,
!!	Not from suffering, but from delight I die.
!!@@END:		VERSES
!!@OTHER_CRIT_ED:   None
!!@ATTRIBUTION_ABOUT:	Secure
!!		<br>
!!		Among other sources, this poem appears in the authoritative manuscript It. 385, Biblioteca Estense Universitaria, Modena, Italy (see Literary Sources).
!!@DATING:	Mid-1580s or earlier
!!@DEDICATEE:
!!@COMMENTARY:
!!@@END:		VERSEDATA
!!@@BEGIN:	SETTING
!!@CATALOGNUM:	Trm0335f
!!@RIMETITLE:	Voi bramate, ben mio
!!@SOLERTI:	335
!!@COMPOSER:	Fonghetti, Paolo
!!@PRINCEPSTITLE:	Capricii et madrigali. A due voci
!!@PRINCEPSLOC:	Verona
!!@NORMLOC:	Verona
!!@NORMPUB:	Dalle Donne
!!@NORMPUBSHORT:	Dalle Donne
!!@PRINCEPSPUB:	Dalle Donne
!!@PRINCEPSYEAR:	1598
!!@PRINCEPSRISM:	F 1471
!!@REPRINTS:	
!!@OVOICES:	2
!!@EXTANTVOICES:	2
!!@PARTBOOKS:	
!!@EXTPARTBOOKS:	
!!@OCLEFS:	G2,C2
!!@OMENSURATION:	C
!!@OKEYSIG:	-
!!@FINAL:	A
!!@TIMPEDITOR:	Schleuse, Paul
!!@NOTE:		
!!@@END:		SETTING
